X: 10712
T: MR. STABILINA'S FAVOURITE
C: Nathaniel Gow
Q: "Not too fast."
%R: reel, march
B: W. Hamilton "Universal Tune-Book" Vol. 1 Glasgow 1844 p.72 #2
S: http://imslp.org/wiki/Hamilton's_Universal_Tune-Book_(Various)
Z: 2016 John Chambers <jc:trillian.mit.edu>
N: The slur in bar 4 has a horizontal line overlaid; the meaning of this isn't obvious.
M: 2/4
L: 1/16
K: Eb
%%slurgraces yes
%%graceslurs yes
% - - - - - - - - - - - - - - - - - - - - - - - - -
B2 |\
(e2g2)(B2e2) | d2G2c4 | BE3F3E | (D2F2F2)B2 |\
(e2g2)(B2e2) | d2=E2F2c2 | B2>E2 {F}E2DC | B,2E2E2 :|\
_D2 |\
C2=E2E2C2 | (F2A2)A2c2 | (e2a2)(c2f2) | {e}d6 (ga) |
b2(g2a2)(f2 | g2)e2f2(d2 | e3)E {F}E2DC | B,2E2E2_D2 |\
C2=E2E2C2 | F2A2A2c2 | (f2a2)(c2f2) | {e}d4 efga |\
(bg)(bg) (af)(af) | (gf)(ge) (fe)(fd) | e3E {F}E2DC | B,2E2E2 |]
% - - - - - - - - - - - - - - - - - - - - - - - - -

%%sep 1 1 500
%%sep 1 1 500

